build/img/icons/sad.svg

<svg width="24" height="24" viewBox="0 0 24 24" fill="none" xmlns="http://www.w3.org/2000/svg">
<g filter="url(#filter0_di)">
<path d="M12 22C6.47715 22 2 17.5228 2 12C2 6.47715 6.47715 2 12 2C17.5228 2 22 6.47715 22 12C21.9939 17.5203 17.5203 21.9939 12 22ZM12 4C7.58172 4 4 7.58172 4 12C4 16.4183 7.58172 20 12 20C16.4183 20 20 16.4183 20 12C19.995 7.58378 16.4162 4.00496 12 4ZM10 18C9.986 18 9.86 17.995 9 17.995H8V17.971C8 17.96 8 17.946 8 17.929C8 17.896 8 17.851 8.007 17.796C8.018 17.647 8.035 17.505 8.059 17.364C8.1339 16.9088 8.27541 16.467 8.479 16.053C8.75697 15.4813 9.18135 14.9935 9.709 14.639L9.723 14.63L9.739 14.618L9.754 14.61H9.76H9.767H9.772H9.779L9.79 14.603C10.4548 14.197 11.2211 13.9879 12 14C12.8096 13.9785 13.6071 14.1996 14.29 14.635C14.8172 14.99 15.2414 15.4777 15.52 16.049C15.7244 16.4626 15.8656 16.9045 15.939 17.36C15.971 17.548 15.985 17.699 15.991 17.792C15.991 17.836 15.997 17.88 15.998 17.925C15.998 17.942 15.998 17.956 15.998 17.967V17.987C15.998 17.987 15.958 17.987 14.998 17.987C14.092 17.987 13.998 17.987 13.998 17.987C13.998 17.987 13.998 17.958 13.998 17.928C13.998 17.873 13.985 17.788 13.967 17.682C13.9251 17.4229 13.8456 17.1712 13.731 16.935C13.6072 16.6753 13.4171 16.4529 13.18 16.29C12.8236 16.0797 12.4133 15.9788 12 16C11.5857 15.9818 11.1753 16.0862 10.82 16.3C10.5832 16.4632 10.3932 16.6856 10.269 16.945C10.1546 17.1813 10.0752 17.4329 10.033 17.692C10.0188 17.7734 10.0088 17.8555 10.003 17.938C10.003 17.966 10.003 17.986 10.003 17.996H10V18ZM8.5 12C7.67157 12 7 11.3284 7 10.5C7 9.67157 7.67157 9 8.5 9C9.32843 9 10 9.67157 10 10.5C10 11.3284 9.32843 12 8.5 12ZM15.493 11.986C14.6684 11.986 14 11.3176 14 10.493C14 9.66844 14.6684 9 15.493 9C16.3176 9 16.986 9.66844 16.986 10.493C16.9849 11.3171 16.3171 11.9849 15.493 11.986Z" fill="#FF9900"/>
</g>
<defs>
<filter id="filter0_di" x="0" y="0" width="24" height="25" filterUnits="userSpaceOnUse" color-interpolation-filters="sRGB">
<feFlood flood-opacity="0" result="BackgroundImageFix"/>
<feColorMatrix in="SourceAlpha" type="matrix" values="0 0 0 0 0 0 0 0 0 0 0 0 0 0 0 0 0 0 127 0" result="hardAlpha"/>
<feOffset dy="1"/>
<feColorMatrix type="matrix" values="0 0 0 0 0.72549 0 0 0 0 0.34902 0 0 0 0 0.215686 0 0 0 1 0"/>
<feBlend mode="normal" in2="BackgroundImageFix" result="effect1_dropShadow"/>
<feBlend mode="normal" in="SourceGraphic" in2="effect1_dropShadow" result="shape"/>
<feColorMatrix in="SourceAlpha" type="matrix" values="0 0 0 0 0 0 0 0 0 0 0 0 0 0 0 0 0 0 127 0" result="hardAlpha"/>
<feMorphology radius="5" operator="erode" in="SourceAlpha" result="effect2_innerShadow"/>
<feOffset/>
<feGaussianBlur stdDeviation="10"/>
<feComposite in2="hardAlpha" operator="arithmetic" k2="-1" k3="1"/>
<feColorMatrix type="matrix" values="0 0 0 0 1 0 0 0 0 1 0 0 0 0 1 0 0 0 0.15 0"/>
<feBlend mode="normal" in2="shape" result="effect2_innerShadow"/>
</filter>
</defs>
</svg>

<svg width="24" height="24" viewBox="0 0 24 24" fill="none" xmlns="http://www.w3.org/2000/svg">
    <path d="M12 22C6.477 22 2 17.523 2 12S6.477 2 12 2s10 4.477 10 10c-.006 5.52-4.48 9.994-10 10zm0-18a8 8 0 1 0 8 8 8.009 8.009 0 0 0-8-8zm-2 14c-.014 0-.14-.005-1-.005H8v-.024-.042c0-.033 0-.078.007-.133a4.7 4.7 0 0 1 .472-1.743 3.6 3.6 0 0 1 1.23-1.414l.014-.009.016-.012.015-.008h.025l.011-.007A4.117 4.117 0 0 1 12 14a4.06 4.06 0 0 1 2.29.635c.527.355.951.843 1.23 1.414.204.414.346.855.419 1.311.032.188.046.339.052.432 0 .044.006.088.007.133v.062h-2v-.059c0-.055-.013-.14-.031-.246a2.698 2.698 0 0 0-.236-.747 1.638 1.638 0 0 0-.551-.645A2.11 2.11 0 0 0 12 16a2.11 2.11 0 0 0-1.18.3 1.647 1.647 0 0 0-.551.645 2.716 2.716 0 0 0-.266.993v.058H10V18zm-1.5-6a1.5 1.5 0 1 1 0-3 1.5 1.5 0 0 1 0 3zm6.993-.014a1.493 1.493 0 1 1 0-2.986 1.493 1.493 0 0 1 0 2.986z" fill="#F90" filter="url(#a)"/>
    <defs>
        <filter id="a" x="0" y="0" width="24" height="25" filterUnits="userSpaceOnUse" color-interpolation-filters="sRGB">
            <feFlood flood-opacity="0" result="BackgroundImageFix"/>
            <feColorMatrix in="SourceAlpha" values="0 0 0 0 0 0 0 0 0 0 0 0 0 0 0 0 0 0 127 0" result="hardAlpha"/>
            <feOffset dy="1"/>
            <feColorMatrix values="0 0 0 0 0.72549 0 0 0 0 0.34902 0 0 0 0 0.215686 0 0 0 1 0"/>
            <feBlend in2="BackgroundImageFix" result="effect1_dropShadow"/>
            <feBlend in="SourceGraphic" in2="effect1_dropShadow" result="shape"/>
            <feColorMatrix in="SourceAlpha" values="0 0 0 0 0 0 0 0 0 0 0 0 0 0 0 0 0 0 127 0" result="hardAlpha"/>
            <feMorphology radius="5" in="SourceAlpha" result="effect2_innerShadow"/>
            <feOffset/>
            <feGaussianBlur stdDeviation="10"/>
            <feComposite in2="hardAlpha" operator="arithmetic" k2="-1" k3="1"/>
            <feColorMatrix values="0 0 0 0 1 0 0 0 0 1 0 0 0 0 1 0 0 0 0.15 0"/>
            <feBlend in2="shape" result="effect2_innerShadow"/>
        </filter>
    </defs>
</svg>
